!!!COM: Ives, Charles
!!!OTL: A Symphony: New England Holidays
!!!OMV: IV: Thanksgiving and Forefather's Day
!!!example: 262x
!!!work: Ive-33
!!!OMD-full: Adagio maestoso
!!!OMD: [Poco agitando (but slower)]
**kern	**dynam	**kern	**dynam	**kern	**dynam	**kern	**dynam	**kern	**dynam	**kern	**dynam	**kern	**dynam	**kern	**dynam	**kern	**dynam
*grp:A	*grp:A	*grp:A	*grp:A	*grp:A	*	*grp:A	*	*grp:B	*grp:B	*grp:A	*	*grp:A	*grp:A	*grp:A	*grp:A	*grp:A	*grp:A
*part8	*part8	*part7	*part7	*part6	*	*part5	*	*part4	*part4	*part3	*	*part3	*part3	*part2	*part2	*part1	*part1
*staff9	*	*staff8	*	*staff7	*	*staff6	*	*staff5	*	*staff4	*	*staff3	*	*staff2	*	*staff1	*
*ICstr	*	*ICstr	*	*ICstr	*	*ICstr	*	*ICstr	*	*ICidio	*	*ICidio	*	*ICww	*	*ICww	*
*Icbass	*	*Icello	*	*Iviola	*	*Ivioln	*	*Ivioln	*	*Icampn	*	*Icampn	*	*Ioboe	*	*Iflt	*
*I"Contrabass	*	*I"Violoncello	*	*I"Viola	*	*I"Violin 2	*	*I"Violin 1	*	*I"Bells	*	*	*	*I"Oboe I	*	*I"Flute I	*
*I'Cb.	*	*I'Vc.	*	*I'Vla.	*	*I'Vln. 2	*	*I'Vln. 1	*	*I'Bells	*	*	*	*I'Ob.	*	*I'Fl.	*
*clefF4	*	*clefF4	*	*clefC3	*	*clefG2	*	*clefG2	*	*clefF4	*	*clefG2	*	*clefG2	*	*clefG2	*
*ITrd7c12	*	*	*	*	*	*	*	*	*	*ITrd-7c-12	*	*ITrd-7c-12	*	*	*	*	*
*k[]	*	*k[]	*	*k[]	*	*k[]	*	*k[]	*	*k[]	*	*k[]	*	*k[]	*	*k[]	*
*C:	*	*C:	*	*C:	*	*C:	*	*C:	*	*C:	*	*C:	*	*C:	*	*C:	*
*M3/4	*	*M3/4	*	*M3/4	*	*M3/4	*	*M3/4	*	*M3/4	*	*M3/4	*	*M3/4	*	*M3/4	*
=117	=117	=117	=117	=117	=117	=117	=117	=117	=117	=117	=117	=117	=117	=117	=117	=117	=117
*^	*	*^	*	*^	*	*^	*	*	*	*	*	*^	*	*	*	*	*
*	*	*	*	*^	*	*	*	*	*	*	*	*	*	*	*	*	*	*	*	*	*	*
!	!	!	!	!	!	!	!	!	!	!	!	!	!	!	!	!	!	!	!	!	!	!	!
!LO:TX:b:t=	!	!LO:DY:ed=brack	!LO:TX:b:t=	!	!	!LO:DY:ed=brack	!	!	!	!LO:TX:b:B:t=(others)	!	!	!	!LO:DY:ed=brack	!	!	!LO:TX:b:t=	!	!LO:DY:a:ed=brack	!	!	!	!
!LO:TX:b:t=	!	!	!LO:TX:a:B:t=(one)	!	!	!	!LO:TX:a:B:t=(two)	!	!	!LO:TX:a:B:t=(one)	!	!	!LO:TX:a:B:t=(three or four)	!	!	!	!LO:TX:b:t=	!LO:DY:ed	!	!	!	!LO:TX:t=[rallentando]	!
!	!	!	!	!	!	!	!	!LO:T:	!	!	!	!	!	!	!	!	!	!	!	!	!	!	!
!	!	!	!	!	!	!	!	!	!LO:DY:ed=brack	!LO:T:a	!LO:T:b	!LO:DY:ed=bracket	!LO:T:n=2:a	!	!	!LO:DY:ed=brack	!	!	!	!	!	!	!
2.ryy	8ryy	4ryy	4rCCyy	4rdyy	2ryy	4ryy	8.ryy	8.ryy	4ryy	4ryy	8ryy	4ryy	8f#X] 8a#X]	ppp	8.ryy	4ryy	4ryy	4rAyy	4ryy	4%3ryy	.	4%3ryy	.
.	8ryy	.	.	.	.	.	.	.	.	.	4ryy	.	(4f#'v 4a#	.	.	.	.	.	.	.	.	.	.
.	.	.	.	.	.	.	16ryy	16ryy	.	.	.	.	.	.	16ryy	.	.	.	.	.	.	.	.
!	!	!	!LO:TX:b:t=non div.	!	!	!	!	!	!	!	!	!	!	!	!	!	!	!	!LO:DY:ed=brack	!	!	!	!
!	!	!	!LO:TX:a:B:t=a few only	!	!	!	!	!	!	!	!	!	!	!	!	!	!	!	!	!	!	!	!
.	4ryy	.	4rCCyy	4rdyy	.	.	8ryy	8ryy	.	16ryy	.	.	.	.	8.ryy	.	16ryy	8ryy	4ryy	.	.	.	.
.	.	.	.	.	.	.	.	.	.	8.ryy	.	.	.	.	.	.	8.ryy	.	.	.	.	.	.
*	*	*	*	*	*	*	*v	*v	*	*	*	*	*	*	*	*	*	*	*	*	*	*	*
.	.	.	.	.	.	.	8ryy	.	.	4ryy	.	4f#' 4a#)	.	.	.	.	8ryy	.	.	.	.	.
.	.	.	.	.	.	.	.	.	.	.	.	.	.	16ryy	.	.	.	.	.	.	.	.
*	*	*	*	*v	*v	*	*	*	*	*	*	*	*	*	*	*	*	*	*	*	*	*
!	!	!	!	!	!	!	!	!	!	!	!	!	!	!	!	!	!	!	!	!	!
.	4ryy	.	8ryy	4ryy	.	4ryy	.	4ryy	.	.	.	.	8ryy	.	4ryy	4ryy	.	.	.	.	.
.	.	.	8ryy	.	.	.	.	.	8ryy	.	([8f#'u [8a#	.	8ryy	.	.	.	.	.	.	.	.
*v	*v	*	*	*	*	*	*	*v	*v	*	*	*	*	*	*v	*v	*	*	*	*	*
*	*	*v	*v	*	*	*	*	*	*	*	*	*	*	*	*	*	*	*
=118	=118	=118	=118	=118	=118	=118	=118	=118	=118	=118	=118	=118	=118	=118	=118	=118	=118
*	*	*	*	*	*	*	*	*grp:A	*grp:A	*	*	*	*	*	*	*	*
*	*	*grp:B	*grp:B	*	*	*	*	*	*	*	*	*	*	*	*	*	*
*M6/8	*	*M6/8	*	*M6/8	*	*M6/8	*	*M6/8	*	*M6/8	*	*M6/8	*	*M6/8	*	*M6/8	*
*^	*	*^	*	*	*	*^	*	*	*	*	*	*^	*	*	*	*	*
!LO:TX:a:t=pizz.	!LO:TX:b:t=arco	!	!	!	!	!	!	!	!	!	!	!	!	!	!	!	!	!	!	!LO:TX:t=[eighth]=[eighth] 	!
8ryy	2.ryy	.	((8C^L	4.CC	pp >	4%3ryy	.	4.ryy	8.ryy	.	8.ryy	.	4ryy	.	8ryy	4.rByy	.	4ryy	.	4%3ryy	.
8ryy	.	.	8D-X)	.	.	.	.	.	.	.	.	.	.	.	4ryy	.	.	.	.	.	.
.	.	.	.	.	.	.	.	.	8.ryy	.	8.ryy	.	.	.	.	.	.	.	.	.	.
8ryy	.	.	8C'J)	.	.	.	.	.	.	.	.	.	8ryy	.	.	.	.	8ryy	.	.	.
8ryy	.	.	((8C^L	4.CC	] > ]	.	.	16ryy	8.ryy	.	8.ryy	.	8ryy	.	4ryy	16rByy	.	8ryy	.	.	.
.	.	.	.	.	.	.	.	16ryy	.	.	.	.	.	.	.	16ryy	.	.	.	.	.
!	!	!	!	!	!	!	!	!	!	!	!	!	!	!	!	!	!	!	!LO:DY:t= %s  ( as a kind of solo, but not f )	!	!
8ryy	.	.	8D-)	.	.	.	.	8ryy	.	.	.	.	4ryy	.	.	8ryy	.	8ryy	4ryy	.	.
.	.	.	.	.	.	.	.	.	8.ryy	.	8.ryy	.	.	.	.	.	.	.	.	.	.
!	!	!	!	!	!	!	!	!	!	!	!	!	!	!	!	!	!	!LO:TX:b:i:t=	!	!	!
!	!	!	!	!	!	!	!	!	!	!	!	!	!	!	!	!	!	!LO:TX:b:i:t=	!	!	!
8ryy	.	.	8C'J)	.	.	.	.	8ryy	.	.	.	.	.	.	8ryy	8ryy	.	8ryy	.	.	.
=119	=119	=119	=119	=119	=119	=119	=119	=119	=119	=119	=119	=119	=119	=119	=119	=119	=119	=119	=119	=119	=119
8ryy	2.ryy	.	((8C^L	4.CC	> ]	4%3ryy	.	8ryy	8.ryy	.	8.ryy	.	4ryy	.	8ryy	8ryy	.	4.ryy	.	4%3ryy	.
8ryy	.	.	8D-X)	.	.	.	.	16ryy	.	.	.	.	.	.	4ryy	16ryy	.	.	.	.	.
.	.	.	.	.	.	.	.	16ryy	8.ryy	.	8.ryy	.	.	.	.	8ryy	.	.	.	.	.
8ryy	.	.	8C'J)	.	.	.	.	8ryy	.	.	.	.	8ryy	.	.	.	.	.	.	.	.
.	.	.	.	.	.	.	.	.	.	.	.	.	.	.	.	16ryy	.	.	.	.	.
8ryy	.	.	((8C^L	4.CC	] > ]	.	.	4ryy	8.ryy	.	8.ryy	.	8ryy	.	4ryy	4ryy	.	8ryy	.	.	.
8ryy	.	.	8D-)	.	.	.	.	.	.	.	.	.	4ryy	.	.	.	.	8ryy	.	.	.
.	.	.	.	.	.	.	.	.	8.ryy	.	8.ryy	.	.	.	.	.	.	.	.	.	.
8ryy	.	.	8C'J)	.	.	.	.	16ryy	.	.	.	.	.	.	16ryy	8ryy	.	8ryy	.	.	.
.	.	.	.	.	.	.	.	16ryy	.	.	.	.	.	.	16ryy	.	.	.	.	.	.
=120	=120	=120	=120	=120	=120	=120	=120	=120	=120	=120	=120	=120	=120	=120	=120	=120	=120	=120	=120	=120	=120
!	!	!	!	!	!	!	!	!	!	!	!	!	!	!	!	!	!	!LO:S:a	!	!	!
8ryy	2.ryy	.	((8C^L	4.CC	>]	4%3ryy	.	4ryy	8.ryy	.	8.ryy	.	4ryy	.	4ryy	8.ryy	.	4.ryy	.	4ryy	.
8ryy	.	.	8D-X)	.	.	.	.	.	.	.	.	.	.	.	.	.	.	.	.	.	.
.	.	.	.	.	.	.	.	.	8.ryy	.	8.ryy	.	.	.	.	16ryy	.	.	.	.	.
8ryy	.	.	8C'J)	.	.	.	.	4.ryy	.	.	.	.	8ryy	.	4.ryy	4.ryy	.	.	.	8ryy	.
8ryy	.	.	((8C^L	4.CC	] > ]	.	.	.	8.ryy	.	8.ryy	.	8ryy	.	.	.	.	4r)yy	.	8ryy	4ryy
8ryy	.	.	8D-)	.	.	.	.	.	.	.	.	.	4ryy	.	.	.	.	.	.	4ryy	.
.	.	.	.	.	.	.	.	.	8.ryy	.	8.ryy	.	.	.	.	.	.	.	.	.	.
8ryy	.	.	8C'J)	.	.	.	.	16ryy	.	.	.	.	.	.	8ryy	8ryy	.	8ryy	.	.	.
.	.	.	.	.	.	.	.	16ryy	.	.	.	.	.	.	.	.	.	.	.	.	.
=121	=121	=121	=121	=121	=121	=121	=121	=121	=121	=121	=121	=121	=121	=121	=121	=121	=121	=121	=121	=121	=121
!	!	!	!	!	!	!	!	!	!	!	!	!	!	!	!LO:TX:a:t=Bells die away	!	!LO:HP:t= 	!	!	!	!
8ryy	2.ryy	.	((8C^L	4.CC	>]	4%3ryy	.	8ryy	8.ryy	.	8.ryy	.	8.ryy	.	8ryy	8.ryy	4ryy	4%3ryy	.	8ryy	.
16ryy	.	.	8D-X)	.	.	.	.	4ryy	.	.	.	.	.	.	4ryy	.	.	.	.	8ryy	.
16ryy	.	.	.	.	.	.	.	.	8.ryy	.	8.ryy	.	8.ryy	.	.	8.ryy	.	.	.	.	.
8ryy	.	.	8C'J)	.	.	.	.	.	.	.	.	.	.	.	.	.	.	.	.	8ryy	.
8ryy	.	.	((8C^L	4.CC	] > ]	.	.	16ryy	4ryy	.	4ryy	.	8ryy	.	8ryy	16ryy	.	.	.	8ryy	.
.	.	.	.	.	.	.	.	16ryy	.	.	.	.	.	.	.	16ryy	.	.	.	.	.
8ryy	.	.	8D-)	.	.	.	.	8ryy	.	.	.	.	4ryy	.	16ryy	4ryy	.	.	.	4ryy	4ryy
.	.	.	.	.	.	.	.	.	.	.	.	.	.	.	8.ryy	.	.	.	.	.	.
8ryy	.	.	8C'J)	.	.]]	.	.	8ryy	8ryy	.	8ryy	.	.	.	.	.	.	.	.	.	.
=122	=122	=122	=122	=122	=122	=122	=122	=122	=122	=122	=122	=122	=122	=122	=122	=122	=122	=122	=122	=122	=122
8ryy	2.ryy	.	((8C^L	4.CC	>	4%3ryy	.	16ryy	8.ryy	.	8.ryy	.	4ryy	.	4ryy	16ryy	.	4ryy	.	4.ryy	.
.	.	.	.	.	.	.	.	16ryy	.	.	.	.	.	.	.	8.ryy	.	.	.	.	.
8ryy	.	.	8D-X)	.	.	.	.	8ryy	.	.	.	.	.	.	.	.	.	.	.	.	.
.	.	.	.	.	.	.	.	.	8.ryy	.	8.ryy	.	.	.	.	.	.	.	.	.	.
8ryy	.	.	8C'J)	.	.	.	.	16ryy	.	.	.	.	4ryy	.	16ryy	16ryy	.	8ryy	.	.	.
.	.	.	.	.	.	.	.	8.ryy	.	.	.	.	.	.	8.ryy	8.ryy	.	.	.	.	.
8ryy	.	.	((8C^L	4.CC	] > ]	.	.	.	8.ryy	.	8.ryy	.	.	.	.	.	.	8ryy	4ryy	4ryy	4ryy
8ryy	.	.	8D-)	.	.	.	.	8ryy	.	.	.	.	8.ryy	.	8ryy	16ryy	.	8ryy	.	.	.
.	.	.	.	.	.	.	.	.	8.ryy	.	8.ryy	.	.	.	.	8.ryy	.	.	.	.	.
16ryy	.	.	8C'J)	.	.	.	.	16ryy	.	.	.	.	.	.	8ryy	.	.	8ryy	.	8ryy	.
16ryy	.	.	.	.	.	.	.	16ryy	.	.	.	.	16ryy	.	.	.	.	.	4ryy	.	.
=123	=123	=123	=123	=123	=123	=123	=123	=123	=123	=123	=123	=123	=123	=123	=123	=123	=123	=123	=123	=123	=123
!	!	!	!	!	!	!	!	!	!	!	!	!	!	!	!	!	!	!LO:S:a	!	!	!
4ryy	2.ryy	.	((8C^L	4.CC	>]	4%3ryy	.	4ryy	8.ryy	.	8.ryy	.	4ryy	.	4ryy	8.ryy	.	4.ryy	.	4ryy	.
.	.	.	8D-X)	.	.	.	.	.	.	.	.	.	.	.	.	.	.	.	.	.	.
.	.	.	.	.	.	.	.	.	8.ryy	.	8.ryy	.	.	.	.	16ryy	.	.	.	.	.
8ryy	.	.	8C'J)	.	.	.	.	8.ryy	.	.	.	.	4ryy	.	8.ryy	8.ryy	.	.	.	8ryy	.
8ryy	.	.	((8C^L	4.CC	] > ]	.	.	.	8.ryy	.	8.ryy	.	.	.	.	.	.	4ryy	.	8ryy	4ryy
.	.	.	.	.	.	.	.	16ryy	.	.	.	.	.	.	16ryy	16ryy	.	.	.	.	.
8ryy	.	.	8D-)	.	.	.	.	8ryy	.	.	.	.	4ryy	.	8ryy	8.ryy	.	.	.	8ryy	.
.	.	.	.	.	.	.	.	.	8.ryy	.	8.ryy	.	.	.	.	.	.	.	.	.	.
8ryy	.	.	8C'J)	.	.	.	.	8ryy	.	.	.	.	.	.	8ryy	.	.	8ryy	.	8ryy	.
.	.	.	.	.	.	.	.	.	.	.	.	.	.	.	.	16ryy	.	.	.	.	.
=124	=124	=124	=124	=124	=124	=124	=124	=124	=124	=124	=124	=124	=124	=124	=124	=124	=124	=124	=124	=124	=124
4ryy	2.ryy	.	((8C^L	4.CC	>]	4%3ryy	.	8ryy	8.ryy	.	8.ryy	.	4ryy	.	8ryy	16ryy	.	4%3ryy	.	8ryy	.
.	.	.	.	.	.	.	.	.	.	.	.	.	.	.	.	8ryy	.	.	.	.	.
.	.	.	8D-X)	.	.	.	.	16ryy	.	.	.	.	.	.	8ryy	.	.	.	.	8ryy	.
.	.	.	.	.	.	.	.	16ryy	8.ryy	.	8.ryy	.	.	.	.	16ryy	.	.	.	.	.
8ryy	.	.	8C'J)	.	.	.	.	4ryy	.	.	.	.	4ryy	.	4ryy	4ryy	.	.	.	8ryy	.
8ryy	.	.	((8C^L	4.CC	] > ]	.	.	.	8.ryy	.	8.ryy	.	.	.	.	.	.	.	.	4.ryy	.
8ryy	.	.	8D-)	.	.	.	.	16ryy	.	.	.	.	4ryy	.	16ryy	8.ryy	.	.	.	.	.
.	.	.	.	.	.	.	.	8.ryy	8.ryy	.	8.ryy	.	.	.	8.ryy	.	.	.	.	.	.
8ryy	.	.	8C'J)	.	.	.	.	.	.	.	.	.	.	.	.	.	.	.	.	.	.
.	.	.	.	.	]]	.	.	.	.	.	.	.	.	.	.	16ryy	.	.	.	.	.
*v	*v	*	*	*	*	*	*	*v	*v	*	*	*	*	*	*v	*v	*	*	*	*	*
*	*	*v	*v	*	*	*	*	*	*	*	*	*	*	*	*	*	*	*
=	=	=	=	=	=	=	=	=	=	=	=	=	=	=	=	=	=
*-	*-	*-	*-	*-	*-	*-	*-	*-	*-	*-	*-	*-	*-	*-	*-	*-	*-
!!!system-decoration: [(s1,s2)][([({(s3,s4)})])][(s5,s6,s7,s8,s9)]
!!!CDT: 1874/10/20-1954/05/19
!!!CBL: Danbury, United States
!!!CDL: New York, United States
!!!CNT: American
!!!AGN: Orchestral; Programmatic
!!!MCN: Dorati, Antal
!!!MDT: 1954/04/09
!!!MGN: Minneapolis Symphony Orchestra
!!!MLC: Minneapolis, Minnesota, United States of America
!!!MPD: 1954
!!!MPN:
!!!ODT: 1919
!!!PDT: 1936
!!!excerpt-start-measure: 117
!!!excerpt-end-measure: 124
!!!excerpt-start-time: 6:35
!!!excerpt-end-time: 7:08
!!!excerpt-duration-sec: 33
!!!excerpt-time-signature: 3/4
!!!excerpt-tempo-beat: [quarter]
!!!excerpt-tempo-rate: [53-56]
!!!excerpt-meter-type: triple
!!!excerpt-beat-group: G3
!!!excerpt-beat-subgroup: G2
!!!experiment: 1
!!!EEV: 2020/09/18
!!!ONB: Converted from MusicXML on 2020/09/04
!!!RDF**kern: N = linked
!!!Xfilter: slurcheck
!!!RDF**kern: i = marked note, color="hotpink", text="extra("
!!!RDF**kern: j = marked note, color="magenta", text="extra)"
